X: 115
T:Glen Allen
M:C|
L:1/8
R:Reel
K:G
DE[|:G2DG EGDE|G2BG AGEG|A2EA FAEA|ABcd edBA|!
G2DG EGDE|G2BG AGEG|cBcd efge|1dBAB G2DE:|2dBAB G2Bd|!
|:g2dg egde|g2bg ageg|a2ea faea|a2bg agef|!
g2dg egde|g2bg aged|cBcd efge|1dBAB G2Bd:|2dBAB G2DE|]!
